client/public/img/game/winter/particles/airdrop_crate_particle.svg

<?xml version="1.0" encoding="UTF-8" standalone="no"?>
<!-- Created with Inkscape (http://www.inkscape.org/) -->

<svg
   width="75"
   height="75"
   viewBox="0 0 19.84375 19.84375"
   version="1.1"
   id="svg852"
   xml:space="preserve"
   xmlns="http://www.w3.org/2000/svg"
   xmlns:svg="http://www.w3.org/2000/svg"><defs
     id="defs849"><style
       id="style1-7">
      .cls-1 {
        fill: #bababa;
      }

      .cls-1, .cls-2, .cls-3 {
        isolation: isolate;
        opacity: .997;
        stroke: #303030;
        stroke-linecap: round;
        stroke-miterlimit: 15.1181;
        stroke-width: 5px;
      }

      .cls-2 {
        fill: #5a70e0;
      }

      .cls-3 {
        fill: #3f3fe0;
      }

      .cls-4 {
        opacity: .9;
      }
    </style></defs><g
     id="layer1"><path
       id="rect935"
       style="fill:#b94646;fill-opacity:1;stroke:#5d2323;stroke-width:0.820302;stroke-linecap:round;stroke-miterlimit:4;stroke-dasharray:none;stroke-opacity:1"
       d="M 0.29001984,4.6403225 15.20347,19.553699 12.528699,15.78684 l 2.978384,2.321291 -2.814114,-4.257405 4.246094,3.117718 -0.52793,-1.343611 -1.717468,-3.070134 4.860125,2.648699 L 4.6403414,0.29002126 7.6629089,4.3367086 3.7238283,1.2065297 3.7011656,1.229193 5.6032988,4.5836833 2.5036944,2.4266587 2.4912298,2.4391236 4.1815114,5.4933974 3.0350198,5.1829858 4.9042987,7.5280696 Z" /></g><style
     type="text/css"
     id="style1">
	.st0{fill:#4059BF;stroke:#262673;stroke-width:5.5604;stroke-linecap:round;stroke-linejoin:round;stroke-miterlimit:11.3386;}
	.st1{fill:#384B94;stroke:#262673;stroke-width:5.5604;stroke-linecap:round;stroke-linejoin:round;stroke-miterlimit:11.3386;}
	.st2{fill:#262673;}
	.st3{fill:#69532E;stroke:#333333;stroke-width:5.5616;stroke-linecap:round;stroke-linejoin:round;stroke-miterlimit:11.3386;}
	.st4{fill:#808080;stroke:#2E2E2E;stroke-width:2.7803;stroke-linecap:round;stroke-linejoin:round;stroke-miterlimit:11.3386;}
</style></svg>

<svg xmlns="http://www.w3.org/2000/svg" xml:space="preserve" width="75" height="75" viewBox="0 0 19.844 19.844"><path d="m.29 4.64 14.913 14.914-2.674-3.767 2.978 2.321-2.814-4.257 4.246 3.117-.528-1.343-1.717-3.07 4.86 2.648L4.64.29l3.023 4.047-3.94-3.13-.022.022 1.902 3.355-3.1-2.157-.012.012 1.69 3.054-1.146-.31 1.87 2.345Z" style="fill:#b94646;fill-opacity:1;stroke:#5d2323;stroke-width:.820302;stroke-linecap:round;stroke-miterlimit:4;stroke-dasharray:none;stroke-opacity:1"/></svg>
